!!!!SEGMENT: pl-wn--mus-iii-111-196-cim_katski-apolinary--jean-sobieski-op-7.krn
!!!cenid: 18xx:3629
!!!COM: Kątski, Apolinary
!!!COM-rismID: pe30020040
!!!CDT: 1825-1879
!!!CNT: Polish
!!!OTL: Jean Sobieski op. 7
!!!PDT:
!!!AGN:
!!!SMS-siglum: PL-Wn
!!!SMS-shelfmark: Mus.III.111.196 Cim
!!!SMS-shelfwork: W
!!!SMS-variant:
!!!SMS-altvar:
!!!NIFC-rismSourceID:
!!!NIFC-rismChildID:
!!!NIFC-islandoraID: none
!!!URL-pdf-islandora:
!!!URL-scan: https://polona.pl/item/jean-sobieski-souvenir-de-leopol-mazur-pour-le-violon-avec-accompagnement-d-orchestre,MTA1NjU1OA/5 @EN{Scan on Polona} @PL{Skany w portalu Polona}
!!!IIIF: https://polona.pl/iiif/item/MTA1NjU1OA/manifest.json
!!!ONB-nifc:
!!!OMD: ALLEGRO RISOLUTO.
!!!AIN: 1 piano
!!!key: C
**kern	**kern	**dynam
*part1	*part1	*part1
*staff2	*staff1	*
*>[A,B,B,C]	*>[A,B,B,C]	*>[A,B,B,C]
*>A	*>A	*>A
*I"MAZUR+	*I"MAZUR+	*
*Ipiano	*Ipiano	*
*ICklav	*ICklav	*
*clefF4	*clefG2	*
*kcancel	*kcancel	*
*k[]	*k[]	*
*C:	*C:	*
*M3/4	*M3/4	*
=1	=1	=1
*xywh-2:481,326,3551,832	*xywh-2:481,326,3551,832	*
!	!LO:TX:a:t=☼):rj	!
8.CL 8.CC/	8.eeL 8.cc 8.e/	ff
!	!LO:TX:b:t=con fuoco.	!
16CJk 16CC/	16eeJk 16cc 16e/	.
4C 4CC/	4ff 4dd 4f\	.
4C 4CC/	4ff#X 4dd#X 4f#X\	.
=2	=2	=2
4C 4CC/	4aa 4ffn 4a\	.
4C 4CC/	4gg 4ee 4g\	.
4r	4r	.
=3	=3	=3
*clefG2	*	*
4ee 4cc'\	4aaa 4aa'\	pp
4ee 4cc'\	4ggg 4gg'\	.
4r	4r	.
=4	=4	=4
2.r	(4.a/	>
.	8g/L	.
.	8e/	.
.	8c/J)	]
*clefF4	*	*
=5	=5	=5
8.GGL 8.GGG/	8.bL 8.g 8.B/	ff
16GGJk 16GGG/	16bJk 16g 16B/	.
4GG 4GGG/	4cc 4a 4c/	.
4GG 4GGG/	4cc#X 4a#X 4c#X/	.
=6	=6	=6
4GG 4GGG/	4ee 4ccn 4e/	.
4GG 4GGG/	4dd 4b 4d/	.
4r	4r	.
*clefG2	*	*
=7	=7	=7
4b 4g'/	4eee 4ee'\	pp
4b 4g'/	4ddd 4dd'\	.
4r	4r	.
!!LO:LB:g=original
=8	=8	=8
*xywh-2:477,1096,3586,591	*xywh-2:477,1096,3586,591	*
(4.e/	(4.ee\	>
8d/L	8dd\L	.
8B/	8b\	.
8G/J)	8g\J)	]
*clefF4	*	*
=9	=9	=9
!	!	!LO:DY:rj
4C 4AA 4DD/	8.aL 8.f#X 8.d 8.A/	f <
.	16aJk 16f# 16d 16A/	.
4C 4AA 4DD/	4b 4f# 4d 4B/	.
4C 4AA 4DD/	4a 4f# 4d 4A/	.
=10	=10	=10
4C 4AA 4DD/	8.aaL 8.ff#X 8.dd 8.a\	.
.	16aaJk 16ff# 16dd 16a\	.
4C 4AA 4DD/	4bb 4ff# 4dd 4b\	.
4C 4AA 4DD/	4aa 4ff# 4dd 4a\	.
=11	=11	=11
*	*8va	*
4C 4AA 4DD/	8.aaaL 8.fff#X 8.ddd 8.aa\	.
.	16aaaJk 16fff# 16ddd 16aa\	.
4C 4AA 4DD/	4bbb 4fff# 4ddd 4bb\	.
4C 4AA 4DD/	4aaa 4fff# 4ddd 4aa\	[[
=12	=12	=12
4C 4AA 4DD/	4.dddd 4.ddd\	sf
4c 4A 4D\	.	.
.	8ccccL 8ccc^<\	.
4c 4A 4D\	8bbb 8bb^<\	.
.	8aaaJ 8aa^<\	.
=13	=13	=13
!	!LO:TX:b:t=marcato.	!
4GG 4GGG/	4ggg 4gg\	.
*	*X8va	*
!	!LO:TX:a:t=Trombe.	!
!	!LO:TX:a:t=loco.	!
4r	8g^/L	.
.	8g^/J	.
4r	4g^/	.
=14	=14	=14
4r	8g^/L	.
.	8g^/J	.
4r	4g^/	.
4C 4CC/	4cc 4g 4e/	sf
=15	=15	=15
4GG 4GGG/	4b 4g 4d/	sf
4r	8g^/L	.
.	8g^/J	.
4r	4g^/	.
=16	=16	=16
4r	8g^/L	.
.	8g^/J	.
4r	4g^/	.
4C 4CC/	4cc 4g 4e/	sf
!!LO:LB:g=original
=17	=17	=17
*xywh-2:473,1653,3516,618	*xywh-2:473,1653,3516,618	*
4GG 4GGG/	4b 4g 4d/	sf
4r	8g^/L	.
.	8g^/J	.
4r	4g^/	.
=18	=18	=18
2.r	4g^/	.
.	4d^/	.
.	4g^/	.
=19	=19	=19
2.r	4b 4g^/	.
.	(8b^/L	.
.	8g^/J)	.
.	4b^<\	.
=20	=20	=20
2.r	4b 4g^/	.
.	4g 4d^/	.
.	4b 4g^/	.
=21	=21	=21
2.r	4dd 4b^\	.
.	(8dd\L	.
.	8b\J)	.
.	4dd^\	.
=22	=22	=22
2.r	4dd 4b^\	.
.	4b 4g^/	.
.	4dd 4b^\	.
=23	=23	=23
4GG 4DD 4BBB 4GGG^>/	4gg 4dd 4b 4g^\	ff
!LO:TX:a:t=pesante	!	!
8GGL 8DD 8BBB 8GGG^>/	8ggL 8dd 8b 8g^\	.
8GGJ 8DD 8BBB 8GGG^>/	8ggJ 8dd 8b 8g^\	.
4GG 4DD 4BBB 4GGG^>/	4gg 4dd 4b 4g^\	.
=24	=24	=24
4GG 4DD 4BBB 4GGG^>/	4gg 4dd 4b 4g^\	.
4GG 4DD 4BBB 4GGG^>/	4bb 4gg 4dd 4b^\	.
4GG 4DD 4BBB 4GGG^>/	4ddd 4bb 4gg 4dd^\	.
=25	=25	=25
4GG 4DD 4BBB 4GGG^>/	4ggg 4ddd 4bb 4gg^\	.
4r	4r	.
4r	4r	.
!!LO:LB:g=original
=26|!	=26|!	=26|!
!!!OMD: TEMPO GIUSTO.
*>B	*>B	*>B
*M3/4	*M3/4	*
*xywh-2:469,2193,3640,933	*xywh-2:469,2193,3640,933	*
!LO:TX:b:i:t=☼) Mettez la pédale à chaque mesure, excepté\ndans les passages à modulations.	!	!
4C 4CC/	8.e/L	f
!	!LO:TX:b:t=con energia.	!
.	(16e/Jk	.
4c 4G 4E\	4f/)	.
4c 4G 4E\	(4f#X/	.
=27	=27	=27
4C 4CC/	8a/)	.
.	8r	.
2c 2G 2E^\	(4.g^/	.
.	[8ee\	.
=28	=28	=28
.	16qqee/LL])	p
.	16qqff/JJ	.
4GG/	8.ee\L	.
.	16dd\Jk	.
2B 2G 2F^\	(4.dd^\	.
.	8ee\	.
=29	=29	=29
.	(16qqdd/LL	.
.	16qqee/JJ)	.
4C 4CC/	8.dd\L	.
.	16cc\Jk)	.
2c 2G 2E^\	2cc^\	.
=30	=30	=30
4C 4CC/	8.e/L	f
.	(16e/Jk	.
4c 4G 4E\	4f/)	.
4c 4G 4E\	(4f#X/	.
=31	=31	=31
4C 4CC/	8a'/)	.
.	8r	.
2c 2G 2E^\	(4.g^/	.
.	[8ee\	.
=32	=32	=32
.	16qqee/LL]	p
.	16qqff/JJ	.
*	*^	*
4F 4FF\	8.ee\L)	4ryy	.
.	16dd\Jk	.	.
4d 4A^\	(4.dd^/	2a\	.
4F#X 4FF#X\	.	.	.
.	8cc/)	.	.
*	*v	*v	*
=33	=33	=33
4G 4GG\	(8b\L	.
.	8dd\J	.
2d 2B 2G^<\	16aa'\)	.
.	16r	.
.	8ggL 8ee^\	.
.	8ff#X 8dd#X^\	.
.	8ffnJ 8ddn^\	.
!!LO:PB:g=original
=34	=34	=34
*xywh-3:536,435,3426,649	*xywh-3:536,435,3426,649	*
4C 4CC/	8.eeL 8.cc 8.e/	ff
.	16eeJk 16cc 16e/	.
4c 4G 4E\	4ff 4dd 4f\	.
4c 4G 4E\	4ff#X 4dd#X 4f#X\	.
=35	=35	=35
4C 4CC/	4aa 4ffn 4a\	.
2c 2G 2E^\	4..gg 4..ee 4..g\	.
.	16eee 16gg 16ee\	pp
=36	=36	=36
4GG/	8.eeeL 8.gg 8.ee\	.
.	16dddJk 16ff 16dd\	.
2g 2f 2B^\	4.ddd 4.ff 4.dd\	.
.	8eee 8gg 8ee\	.
=37	=37	=37
4C/	8.dddL 8.ff 8.dd\	.
.	16cccJk 16ee 16cc\	.
2g 2e 2c^<\	2ccc 2ee 2cc^\	.
=38	=38	=38
4C 4CC/	8.eeL 8.cc 8.e/	ff
.	16eeJk 16cc 16e/	.
4c 4G 4E\	4ff 4dd 4f\	.
4c 4G 4E\	4ff#X 4dd#X 4f#X\	.
=39	=39	=39
4C 4CC/	4aa 4ffn 4a\	.
2c 2G 2E^\	4..gg 4..ee 4..g^\	.
.	16eee 16gg 16ee\	pp
=40	=40	=40
4GG/	8.eeeL 8.gg 8.ee\	.
.	16dddJk 16ff 16dd\	.
2g 2f 2B\	4.ddd 4.ff 4.dd\	.
.	8eee 8gg 8ee\	.
=41	=41	=41
4C/	4ccc 4ee 4cc\	.
*	*8va	*
4C 4CC/	4cccc 4ggg 4eee 4ccc\	sf
*	*X8va	*
4r	4r	.
!!LO:LB:g=original
=42:|!	=42:|!	=42:|!
*>C	*>C	*>C
*xywh-3:493,1038,3489,462	*xywh-3:493,1038,3489,462	*
!	!LO:TX:a:t=loco.	!
4C 4CC/	8.c/L	p
.	(16c/Jk	.
2B-X 2G 2E\	4d/	.
.	8.c/L	.
.	16B-X/Jk)	.
=43	=43	=43
4F 4FF/	(8.A/L	.
.	16c/Jk	.
2A 2F\	4.a^/	.
.	8f/)	.
=44	=44	=44
4C 4CC/	(8.e/L	.
.	16g/Jk	.
4c 4B-X 4G\	4.dd^\	.
4c 4B- 4G\	.	.
.	8cc\)	.
=45	=45	=45
4F 4FF/	8.b-X'/L	.
.	16a'/Jk	.
4c 4A 4F\	8g'/L	.
.	8f'/	.
4c 4A 4F\	8e'/	.
.	8d'/J	.
=46	=46	=46
4C 4CC/	8.c/L	.
.	(16c/Jk	.
2B-X 2G 2E\	4d/	.
.	8.c/L	.
.	16B-X/Jk)	.
=47	=47	=47
4F 4FF/	(8.A/L	.
.	16c/Jk	.
2A 2F\	4.a/	.
.	8f/)	.
=48	=48	=48
4C 4CC/	(8e/L	.
.	16dd'/Jk)	.
.	16r	.
4c 4B-X 4G\	8cc'/L	.
.	8b-X'/	.
4c 4B- 4G\	(8.d/	.
.	16e/Jk	.
=49	=49	=49
4F 4FF/	2f/)	.
4c 4A 4F\	.	.
4c 4A 4F\	4r	.
!!LO:LB:g=original
=50	=50	=50
*xywh-3:501,1489,3469,466	*xywh-3:501,1489,3469,466	*
4C 4CC/	8.cc\L	p
.	(16cc\Jk	.
2c 2B-X 2G 2E\	4dd\	.
.	8.cc\L	.
.	16b-X\Jk)	.
=51	=51	=51
4F 4FF/	(8.a\L	.
.	16cc\Jk	.
2c 2A 2F\	4.aa 4.a\	.
.	8ff\)	.
=52	=52	=52
4C 4CC/	(8.ee\L	.
.	16gg\Jk	.
4c 4B-X 4G 4E\	4.ddd 4.dd\	.
4c 4B- 4G 4E\	.	.
.	8ccc 8cc\)	.
=53	=53	=53
4F 4FF/	8.bb-XL 8.b-X'\	.
.	16aaJk 16a'\	.
4c 4A 4F\	8ggL 8g'\	.
.	8ff 8f'\	.
4c 4A 4F\	8ee 8e'\	.
.	8ddJ 8d'\	.
=54	=54	=54
4C 4CC/	8.cc\L	.
.	(16cc\Jk	.
2c 2B-X 2G 2E\	4dd\	.
.	8.cc\L	.
.	16b-X\Jk)	.
=55	=55	=55
4F 4FF/	(8.a\L	.
.	16cc\Jk	.
2c 2A 2F\	4.aa 4.a\	.
.	8ff\)	.
=56	=56	=56
4C 4CC/	(8ee\L	.
.	16ddd'\Jk)	.
.	16r	.
4c 4B-X 4G 4E\	8ccc'\L	.
.	8bb-X'\	.
4c 4B- 4G 4E\	8dd'\	.
.	8ee'\J	.
=57	=57	=57
4F 4FF/	4ff'\	.
4F: 4C: 4AA: 4FF:/	4fff: 4ccc: 4aa':\	sf
4r	4r	.
!!LO:LB:g=original
=58||	=58||	=58||
*xywh-3:501,1921,3465,493	*xywh-3:501,1921,3465,493	*
4C 4CC/	8.eeL 8.cc 8.e/	ff
.	16eeJk 16cc 16e/	.
4c 4G 4E\	4ff 4dd 4f\	.
4c 4G 4E\	4ff#X 4dd#X 4f#X\	.
=59	=59	=59
4C 4CC/	4aa 4ffn 4a\	.
2c 2G 2E^\	4..gg 4..ee 4..g^\	.
.	16eee 16gg 16ee`\	pp
=60	=60	=60
4GG/	8.eeeL 8.gg 8.ee`\	.
.	16dddJk 16ff 16dd`\	.
2B 2G 2F\	4.ddd 4.ff 4.dd`\	.
.	8eee 8gg 8ee`\	.
=61	=61	=61
4C 4CC/	8.dddL 8.ff 8.dd`\	.
.	16cccJk 16ee 16cc`\	.
2c 2G 2E^\	2ccc 2ee 2cc^\	.
=62	=62	=62
4C 4CC/	8.eeL 8.cc 8.e/	ff
.	16eeJk 16cc 16e/	.
4c 4G 4E\	4ff 4dd 4f\	.
4c 4G 4E\	4ff#X 4dd#X 4f#X\	.
=63	=63	=63
4C 4CC/	4aa 4ffn 4a\	.
2c 2G 2E^<\	4.gg 4.ee 4.g^\	.
.	8ee\	p
=64	=64	=64
*	*^	*
4F 4FF/	8.ee\L	4ryy	.
.	16dd\Jk	.	.
4d 4A^\	(4.dd^/	2a\	.
4F#X 4FF#X/	.	.	.
.	8cc/)	.	.
*	*v	*v	*
=65	=65	=65
4G 4GG/	(8b\L	<
.	8dd\J	.
2d 2B 2G\	16aa'\)	[
.	16r	.
.	8ggL 8ee^\	.
.	8ff#X 8dd#X^\	.
.	8ffnJ 8ddn^\	.
!!LO:LB:g=original
=66	=66	=66
*xywh-3:497,2368,3450,653	*xywh-3:497,2368,3450,653	*
4C 4CC/	8.eeL 8.cc 8.e/	ff
.	16eeJk 16cc 16e/	.
4c 4G 4E\	4ff 4dd 4f\	.
4c 4G 4E\	4ff#X 4dd#X 4f#X\	.
=67	=67	=67
4C 4CC/	4aa 4ffn 4a\	.
2c 2G 2E^\	4..gg 4..ee 4..g^\	.
.	16eee 16gg 16ee`\	pp
=68	=68	=68
4GG/	8.eeeL 8.gg 8.ee`\	.
.	16dddJk 16ff 16dd`\	.
2g 2f 2B\	4.ddd 4.ff 4.dd`\	.
.	8eee 8gg 8ee`\	.
=69	=69	=69
4C 4CC/	8.dddL 8.ff 8.dd`\	.
.	16cccJk 16ee 16cc`\	.
2g 2e 2c\	2ccc 2ee 2cc\	.
=70	=70	=70
4C 4CC/	8.eeL 8.cc 8.e/	ff
.	16eeJk 16cc 16e/	.
4c 4G 4E\	4ff 4dd 4f\	.
4c 4G 4E\	4ff#X 4dd#X 4f#X\	.
=71	=71	=71
4C 4CC/	4aa 4ffn 4a\	.
2c 2G 2E\	4..gg 4..ee 4..g\	.
.	16eee 16ee\	.
=72	=72	=72
4D 4DD/	8.eeeL 8.ee\	.
.	16dddJk 16dd\	.
4d 4A 4F#X\	4ddd 4dd\	.
4d 4A 4F#\	4ccc 4cc\	.
=73	=73	=73
4GG 4GGG/	4.bb 4.b\	.
2d 2B 2G\	.	.
.	8ggL 8g\	.
.	8ff#X 8f#X\	.
.	8eeJ 8e\	.
!!LO:PB:g=original
=74||	=74||	=74||
!!!OMD: Animato.
*xywh-4:485,357,3504,735	*xywh-4:485,357,3504,735	*
4D 4DD/	([4dd\	f
4c 4A 4F#X 4D\	8.dd\L]	.
.	16cc\Jk)	.
4c 4A 4F# 4D\	(8.a/L	.
.	16b/Jk)	.
=75	=75	=75
4GG/	(8.g/L	.
.	16b/Jk)	.
2B 2G 2D\	4ee^\	.
.	4dd\	.
=76	=76	=76
4D 4DD/	8.dd\L	.
.	16ff#X\Jk	.
2c 2A 2F#X 2D\	4bb 4b^\	.
.	4aa 4a\	.
=77	=77	=77
4GG/	8.gg\L	.
.	16bb\Jk	.
2B 2G 2D\	4eee 4ee^\	.
.	4ddd 4dd\	.
=78	=78	=78
4D 4DD/	([4dd\	.
4c 4A 4F#X 4D\	8.dd\L]	.
.	16cc\Jk)	.
4c 4A 4F# 4D\	(8.a/L	.
.	16b/Jk)	.
=79	=79	=79
4GG/	8.g/L	.
.	16b/Jk	.
2B 2G 2D\	4ee^\	.
.	4dd\	.
=80	=80	=80
4D 4DD/	4ddd 4dd\	.
4c 4A 4F#X 4D\	8cccL 8cc^\	.
.	8aaJ 8a^\	.
4c 4A 4F# 4D\	8eeL 8e^\	.
.	8ff#XJ 8f#X^\	.
=81	=81	=81
4GG/	4.gg 4.g^\	.
2B 2G 2D\	.	.
.	8ggL 8g^\	.
.	8ff#X 8f#X^\	.
.	8eeJ 8e^\	.
!!LO:LB:g=original
=82	=82	=82
*xywh-4:485,1096,3504,560	*xywh-4:485,1096,3504,560	*
4D 4DD/	([4dd\	f
4c 4A 4F#X 4D\	8.dd\L]	.
.	16cc\Jk)	.
4c 4A 4F# 4D\	(8.a/L	.
.	16b/Jk)	.
=83	=83	=83
4GG/	(8.g/L	.
.	16b/Jk)	.
2B 2G 2D\	4ee^\	.
.	4dd\	.
=84	=84	=84
4D 4DD/	8.dd\L	.
.	16ff#X\Jk	.
2c 2A 2F#X 2D\	4bb 4b^\	.
.	4aa 4a\	.
=85	=85	=85
4GG/	8.gg\L	.
.	16bb\Jk	.
2B 2G 2D\	4eee 4ee^\	.
.	4ddd 4dd\	.
=86	=86	=86
4D 4DD/	([4dd\	.
4c 4A 4F#X 4D\	8.dd\L]	.
.	16cc\Jk)	.
4c 4A 4F# 4D\	(8.a/L	.
.	16b/Jk)	.
=87	=87	=87
4GG/	8.g/L	.
.	16b/Jk	.
2B 2G 2D\	4ee^\	.
.	4dd\	.
=88	=88	=88
4D 4DD/	4ddd 4dd\	.
4c 4A 4F#X 4D\	8cccL 8cc^\	.
.	8aaJ 8a^\	.
4c 4A 4F# 4D\	8eeL 8e^\	.
.	8ff#XJ 8f#X^\	.
=89	=89	=89
8GL 8GG/	8ggL 8g\	.
!	!LO:TX:b:t=con impeto.	!
16GJk 16GG/	16ggJk 16g\	.
16r	16r	.
8F#XL 8FF#X^/	8aaL 8a^\	.
8Fn 8FFn^/	8bb 8b^\	.
8E 8EE^/	8ccc 8cc^\	.
8DJ 8DD^/	8dddJ 8dd^\	.
!!LO:LB:g=original
=90	=90	=90
*xywh-4:473,1602,3496,599	*xywh-4:473,1602,3496,599	*
*	*8va	*
4C 4CC/	8.eeeL 8.ccc 8.ee/	ff
.	16eeeJk 16ccc 16ee/	.
4c 4G 4E\	4fff 4ddd 4ff\	.
4c 4G 4E\	4fff#X 4ddd#X 4ff#X\	.
=91	=91	=91
4C 4CC/	4aaa 4fffn 4aa\	.
2c 2G 2E^\	4..ggg 4..eee 4..gg^\	.
.	16eeee 16ggg 16eee`\	pp
=92	=92	=92
4GG/	8.eeeeL 8.ggg 8.eee`\	.
.	16ddddJk 16fff 16ddd`\	.
2f 2d 2B 2G\	4.dddd 4.fff 4.ddd^\	.
.	8eeee 8ggg 8eee`\	.
=93	=93	=93
4C/	8.ddddL 8.fff 8.ddd`\	.
.	16ccccJk 16eee 16ccc`\	.
2e 2c 2G\	2cccc 2eee 2ccc\	.
=94	=94	=94
4C 4CC/	8.eeeL 8.ccc 8.ee/	ff
.	16eeeJk 16ccc 16ee/	.
4c 4G 4E\	4fff 4ddd 4ff\	.
4c 4G 4E\	4fff#X 4ddd#X 4ff#X\	.
=95	=95	=95
4C 4CC/	4aaa 4fffn 4aa\	.
2c 2G 2E\	4..ggg 4..eee 4..gg\	.
*	*X8va	*
!	!LO:TX:a:t=loco.	!
.	16eee 16ee\	.
=96	=96	=96
4F 4FF/	8.eeeL 8.ee\	.
.	16dddJk 16dd\	.
4d 4A\	4.ddd 4.dd^\	.
4F#X 4FF#X/	.	.
.	8ccc 8cc\	.
=97	=97	=97
4G 4GG/	8bbL 8b`\	.
.	8dddJ 8dd`\	.
*	*8va	*
2d 2B 2G\	16aaa 16aa\	.
.	16r	.
.	8gggL 8gg^\	.
.	8fff#X 8ff#X^\	.
.	8fffnJ 8ffn^\	.
!!LO:LB:g=original
=98	=98	=98
*xywh-4:454,2108,3527,785	*xywh-4:454,2108,3527,785	*
4C 4CC/	8.eeeL 8.ccc 8.ee/	ff
.	16eeeJk 16ccc 16ee/	.
4c 4G 4E\	4fff 4ddd 4ff\	.
4c 4G 4E\	4fff#X 4ddd#X 4ff#X\	.
=99	=99	=99
4C 4CC/	4aaa 4fffn 4aa\	.
2c 2G 2E\	4..ggg 4..eee 4..gg\	.
*	*X8va	*
!	!LO:TX:a:t=loco.	!
.	16eee 16gg 16ee`\	pp
=100	=100	=100
4GG/	8.eeeL 8.gg 8.ee`\	.
.	16dddJk 16ff 16dd`\	.
2f 2d 2B 2G\	4.ddd 4.ff 4.dd^\	.
.	8eee 8gg 8ee`\	.
=101	=101	=101
4C/	8.dddL 8.ff 8.dd`\	.
.	16cccJk 16ee 16cc`\	.
2e 2c 2G\	2ccc 2ee 2cc^\	.
=102	=102	=102
*	*8va	*
4C 4CC/	8.eeeL 8.ccc 8.ee/	ff
.	16eeeJk 16ccc 16ee/	.
4c 4G 4E\	4fff 4ddd 4ff\	.
4c 4G 4E\	4fff#X 4ddd#X 4ff#X\	.
=103	=103	=103
4C 4CC/	4aaa 4fffn 4aa\	.
2c 2G 2E\	4..ggg 4..eee 4..gg\	.
*	*X8va	*
!	!LO:TX:a:t=loco.	!
.	16eee 16gg 16ee\	pp
=104	=104	=104
4GG/	8.eeeL 8.gg 8.ee\	.
.	16dddJk 16ff 16dd\	.
2f 2d 2B 2G\	4.ddd 4.ff 4.dd\	.
.	8eee 8gg 8ee\	.
=105	=105	=105
4C/	4ccc 4ee 4cc\	.
*	*8va	*
4C 4CC/	4cccc 4ggg 4eee 4ccc\	sf
*	*X8va	*
4r	4r	.
=106||	=106||	=106||
!	!LO:TX:a:t=loco.	!
4C 4CC/	8.eeL 8.e\	ff
.	16ggJk 16g\	.
4c 4G 4E\	4.ccc 4.cc\	.
4c 4G 4E\	.	.
.	8bb 8b\	.
!!LO:PB:g=original
=107	=107	=107
*xywh-5:520,416,3516,801	*xywh-5:520,416,3516,801	*
4F 4FF/	8.bbL 8.b\	.
.	16aaJk 16a\	.
2c 2A 2F\	2aa 2a\	.
=108	=108	=108
4GG 4GGG/	8.b\L	.
.	16dd\Jk	.
4B 4G 4F\	4.gg 4.g\	.
4B 4G 4F\	.	.
.	8ff 8f\	.
=109	=109	=109
4C 4CC/	8.ffL 8.f\	.
.	16eeJk 16e\	.
2c 2G 2E\	2ee 2e\	.
=110	=110	=110
4C 4CC/	8.eeL 8.e\	.
.	16ggJk 16g\	.
4c 4G 4E\	4.ccc 4.cc\	.
4c 4G 4E\	.	.
.	8bb 8b\	.
=111	=111	=111
4F 4FF/	8.bbL 8.b\	.
.	16aaJk 16a\	.
2c 2A 2F\	2aa 2a\	.
=112	=112	=112
4GG 4GGG/	8.ggL 8.g\	.
.	16aaJk 16a\	.
4B 4G 4F\	8.bbL 8.b\	.
.	16cccJk 16cc\	.
4B 4G 4F\	8.dddL 8.dd\	.
.	16eeeJk 16ee\	.
=113	=113	=113
4C 4CC/	4ccc 4cc\	.
*	*8va	*
4c 4G 4E 4C\	4cccc 4ggg 4eee 4ccc\	.
*	*X8va	*
4r	4r	.
=114||	=114||	=114||
*^	*	*
!	!	!LO:TX:a:t=loco.	!
(4C\	2.G/	(8.ee\L	p
.	.	16gg\Jk	.
4e\	.	4.ccc 4.ee^\	.
4e\)	.	.	.
.	.	8bb 8gg\)	.
=115	=115	=115	=115
(4F\	2.A/	(8.bbL 8.gg\	.
.	.	16aaJk 16ff\)	.
4f\	.	2aa 2ff^\	.
4f\)	.	.	.
!!LO:LB:g=original
=116	=116	=116	=116
*xywh-5:532,1198,3582,525	*xywh-5:532,1198,3582,525	*xywh-5:532,1198,3582,525	*
(4G\	2.B/	(8.b\L	.
.	.	16dd\Jk	.
4f\	.	4.gg 4.b^\	.
4f\)	.	.	.
.	.	8ff 8dd\)	.
=117	=117	=117	=117
(4A\	2.c/	(8.ffL 8.dd\	.
.	.	16eeJk 16cc\)	.
4e\	.	2ee 2cc^\	.
4e\)	.	.	.
=118	=118	=118	=118
(4E\	2.G/	(8.ee\L	.
.	.	16gg\Jk	.
4c\	.	4.ccc 4.ee\	.
4c\)	.	.	.
.	.	8bb 8gg\)	.
=119	=119	=119	=119
(4F\	2.A/	(8.bbL 8.gg\	.
.	.	16aaJk 16ff\)	.
4c\	.	2aa 2ff^\	.
4c\)	.	.	.
=120	=120	=120	=120
(4D#X\	2.F#X/	4aa 4a\	.
4c\	.	8gg#XL 8g#X\	.
.	.	8aa 8a\	.
4c\)	.	8bb 8b\	.
.	.	8aaJ 8a\	.
*v	*v	*	*
=121	=121	=121
4B 4G#X 4E\	4gg#X 4g#X\	sf
2r	8.e/L	.
.	(16d#X/Jk	.
.	8.e/L)	.
.	(16d#/Jk	.
=122	=122	=122
2.r	8.e/L)	.
.	(16d#X/Jk	.
.	8.e/L)	.
.	(16d#/Jk	.
.	8.e/L)	.
.	(16d#/Jk	.
=123	=123	=123
2.r	8.e/L)	>
.	(16e/Jk	.
.	8.f/L)	.
.	(16f#X/Jk	.
.	8.g/L)	.
.	(16g#X/Jk	.
!!LO:LB:g=original
=124	=124	=124
*xywh-5:536,1734,3461,552	*xywh-5:536,1734,3461,552	*
2.r	8.a/L)	.
.	(16a#X/Jk	.
.	8.b\L)	.
.	(16cc\Jk	.
.	8.cc#X\L)	.
.	16dd\Jk	]
=125|!	=125|!	=125|!
!!!key: A
*k[f#c#g#]	*k[f#c#g#]	*
.	((<16qqcc#/LL	pp
.	16qqdd/JJ	.
*	*ped	*
4E 4EE/	8.cc#\L)	.
.	16b\Jk	.
4r	2ee^\)	.
*	*Xped	*
4d 4G# 4E\	.	.
=126	=126	=126
*	*ped	*
.	((<16qqb/LL	.
.	16qqcc#/JJ	.
4AA/	8.b\L)	.
.	16a\Jk	.
4r	2ee^\)	.
*	*Xped	*
4c# 4A 4E\	.	.
=127	=127	=127
*	*ped	*
4E 4EE/	8.f#/L	.
.	(16f#/Jk	.
4r	4g#/	.
*	*Xped	*
4d 4G# 4E\	4e/)	.
=128	=128	=128
*	*ped	*
.	(16qqa/LL	.
.	16qqb/JJ	.
4AA/	8a/L	.
.	8g#/J)	.
4c# 4A 4E\	8a'/L	.
.	8b'/J	.
4c# 4A 4E\	8cc#'\L	.
*	*Xped	*
.	8dd'\J	.
=129	=129	=129
*	*ped	*
.	((<16qqcc#/LL	.
.	16qqdd/JJ	.
4E 4EE/	8.cc#\L)	.
.	16b\Jk	.
4r	2ee^\)	.
*	*Xped	*
4d 4G# 4E\	.	.
=130	=130	=130
*	*ped	*
.	((<16qqb/LL	.
.	16qqcc#/JJ	.
4AA/	8.b\L)	.
.	16a\Jk	.
4r	2ee^\)	.
*	*Xped	*
4c# 4A 4E\	.	.
=131	=131	=131
!LO:TX:a:t=segue.	!	!
4E 4EE/	8.f#/L	.
.	(16f#/Jk	.
4r	4g#/	.
4d 4G# 4E\	4e/)	.
!!LO:LB:g=original
=132	=132	=132
*xywh-5:513,2291,3465,583	*xywh-5:513,2291,3465,583	*
4AA/	(2a/	.
4c# 4A 4E\	.	.
4c# 4A 4E\	4dd\)	.
=133	=133	=133
.	((<16qqcc#/LL	.
.	16qqdd/JJ	.
4E 4EE/	8.cc#\L)	.
.	16b\Jk	.
4r	2ee^\)	.
4d 4G# 4E\	.	.
=134	=134	=134
.	((<16qqb/LL	.
.	16qqcc#/JJ	.
4AA/	8.b\L)	.
.	16a\Jk	.
4r	2ee^\)	.
4c# 4A 4E\	.	.
=135	=135	=135
4E 4EE/	8.f#/L	.
.	(16f#/Jk	.
4r	4g#/	.
4d 4G# 4E\	4e/)	.
=136	=136	=136
.	(16qqa/LL	.
.	16qqb/JJ	.
4AA/	8a/L	.
.	8g#/J)	.
4c# 4A 4E\	8a'/L	.
.	8b'/J	.
4c# 4A 4E\	8cc#'\L	.
.	8dd'\J	.
=137	=137	=137
.	((<16qqcc#/LL	.
.	16qqdd/JJ	.
4E 4EE/	8.cc#\L)	.
.	16b\Jk	.
4r	2ee^\)	.
4d 4G# 4E\	.	.
=138	=138	=138
.	((<16qqb/LL	.
.	16qqcc#/JJ	.
4AA/	8.b\L)	.
.	16a\Jk	.
4r	2ee^\)	.
4c# 4A 4E\	.	.
=139	=139	=139
4E 4EE/	8.f#/L	.
.	(16f#/Jk	.
4r	4g#/	.
4d 4G# 4E\	4e/)	.
=140	=140	=140
4AA/	(2a/	.
4c# 4A 4E\	.	.
4c# 4A 4E\	4g#/)	.
!!LO:PB:g=original
=141||	=141||	=141||
!!!OMD: PIÙ VIVO.
*xywh-6:586,342,3531,680	*xywh-6:586,342,3531,680	*
!	!	!LO:DY:rj
4c# 4G# 4E 4C#\	8.cc#\L	ff
!	!LO:TX:b:t=pastorale.	!
.	(16cc#\Jk	.
4B#X 4G# 4F# 4C#\	4dd#X\	.
4B# 4G# 4F# 4C#\	8b#X/L	.
.	8g#/J)	.
=142	=142	=142
.	(16qqcc#/LL	.
.	16qqdd#X/JJ	.
4c# 4G# 4E 4C#\	8cc#\L	.
.	8b#X\	.
4c# 4G# 4E 4C#\	8cc#\	.
.	8dd#X\	.
4c# 4G# 4E 4C#\	8ee\	.
.	8dd#\J)	.
=143	=143	=143
4c# 4G# 4E 4C#\	8.cc#\L	.
.	(16cc#\Jk	.
4B#X 4G# 4F# 4C#\	4dd#X\	.
4B# 4G# 4F# 4C#\	8b#X/L	.
.	8g#/J)	.
=144	=144	=144
.	(<16qqcc#/LL	.
.	16qqdd#X/JJ	.
4c# 4G# 4E 4C#\	(8cc#\L)	.
.	8b#X\	.
4c# 4G# 4E 4C#\	8cc#\	.
.	8dd#X\J	.
4c# 4G# 4E 4C#\	4ee\)	.
=145	=145	=145
*^	*	*
4r	2.C#\	8dd#X\	.
.	.	8r	.
.	.	8qg#/	.
4B#X 4G# 4F#/	.	(4.gg#^\	.
4B# 4G# 4F#/	.	.	.
.	.	8ff#\)	.
=146	=146	=146	=146
4r	2.C#\	(4.ee\	.
4c# 4G# 4E/	.	.	.
.	.	8cc#\L	.
4c# 4G# 4E/	.	8dd#X\	.
.	.	8ee\J)	.
=147	=147	=147	=147
4r	2.C#\	(4dd#X\	.
4B#X 4G# 4F#/	.	8b#X\L	.
.	.	8g#\	.
4B# 4G# 4F#/	.	8a#X\	.
.	.	8b#\J)	.
!!LO:LB:g=original
=148	=148	=148	=148
*xywh-6:586,987,3590,474	*xywh-6:586,987,3590,474	*xywh-6:586,987,3590,474	*
.	.	16qqdd#X/	.
4r	2.C#\	(8cc#\L	.
.	.	8b#X\	.
4c# 4G# 4E/	.	8cc#\	.
.	.	8dd#X\J	.
4c# 4G# 4E/	.	4ee^\)	.
=149	=149	=149	=149
4r	2.C#\	8dd#X\	.
.	.	8r	.
.	.	8qg#/	.
4B#X 4G# 4F#/	.	(4.gg#^\	.
4B# 4G# 4F#/	.	.	.
.	.	8ff#\)	.
=150	=150	=150	=150
4r	2.C#\	(4.ee\	.
4c# 4G# 4E/	.	.	.
.	.	8cc#\L	.
4c# 4G# 4E/	.	8dd#X\	.
.	.	8ee\J)	.
=151	=151	=151	=151
4r	2.C#\	(4dd#X\	.
4B#X 4G# 4F#/	.	8b#X\L	.
.	.	8g#\	.
4B# 4G# 4F#/	.	8a#X\	.
.	.	8b#\J)	.
*v	*v	*	*
=152	=152	=152
2c# 2G# 2E 2C#\	(8.cc#\L	.
.	16ee\Jk	.
.	4dd#X\	.
4B#X 4G# 4F# 4C#^\	4g#^>/)	.
=153	=153	=153
2c# 2G# 2E 2C#\	(8cc#\L	.
.	8ee\	.
.	8dd#X\	.
.	8ff#\J	.
4B#X 4G# 4F# 4C#\	8ee\L	.
.	8dd#\J)	.
=154	=154	=154
2c# 2G# 2E 2C#\	(8.cc#\L	.
.	16ee\Jk	.
.	4dd#X\	.
4B#X 4G# 4F# 4C#\	4g#/)	.
!!LO:LB:g=original
=155	=155	=155
*xywh-6:602,1431,3504,447	*xywh-6:602,1431,3504,447	*
2c# 2G# 2E 2C#\	(8.cc#\L	.
.	16ee\Jk	.
.	8dd#X\L	.
.	8ff#\	.
4B#X 4G# 4F# 4C#\	8ee\	.
.	8dd#\J)	.
=156	=156	=156
2c# 2G# 2E 2C#\	(8.cc#\L	.
.	16ee\Jk	.
.	4dd#X\	.
4B#X 4G# 4F# 4C#\	4g#/)	.
=157	=157	=157
2c# 2G# 2E 2C#\	(8cc#\L	.
.	8ee\	.
.	8dd#X\	.
.	8ff#\	.
4B#X 4G# 4F# 4C#\	8ee\	.
.	8dd#\J)	.
=158	=158	=158
2c# 2G# 2E 2C#\	(8cc#\L	.
.	8ee\	.
.	8dd#X\	.
.	8ff#\	.
4B#X 4G# 4F# 4C#\	8ee\	.
.	8dd#\J)	.
=159	=159	=159
2c# 2G# 2E 2C#\	(8cc#\L	.
.	8ee\	.
.	8dd#X\	.
.	8ff#\	.
4B#X 4G# 4F# 4C#\	8ee\	.
.	8dd#\J)	.
=160	=160	=160
.	(16qqcc#/LL	.
.	16qqdd#X/JJ	.
4c# 4G# 4E 4C#\	8.cc#\L	.
.	16b#X\Jk	.
4r	4cc#\	.
4r	4dd#X^\)	.
=161	=161	=161
.	(16qqcc#/LL	.
.	16qqdd#X/JJ	.
2.r	8.cc#\L	.
.	16b#X\Jk	.
.	4cc#\	.
.	4dd#X^\)	.
!!LO:LB:g=original
=162	=162	=162
*xywh-6:606,1851,3520,493	*xywh-6:606,1851,3520,493	*
.	(16qqcc#/LL	.
.	16qqdd#X/JJ	.
2.r	8.cc#\L	.
.	16b#X\Jk	.
.	4cc#\	.
.	4dd#X^\)	.
=163	=163	=163
.	(16qqcc#/LL	.
.	16qqdd#X/JJ	.
2.r	8.cc#\L	>
.	16b#X\Jk	.
.	4cc#\	.
.	4ddn^\)	]]
=164||	=164||	=164||
!!!OMD: Tempo 1.°
*	*ped	*
.	((<16qqcc#/LL	pp
.	16qqdd/JJ	.
4E 4EE/	8.cc#\L)	.
.	16b\Jk	.
4r	2ee^\)	.
*	*Xped	*
4d 4G# 4E\	.	.
=165	=165	=165
.	((<16qqb/LL	.
.	16qqcc#/JJ	.
4AA/	8.b\L)	.
.	16a\Jk	.
4r	2ee^\)	.
4c# 4A 4E\	.	.
=166	=166	=166
4E 4EE/	8.f#/L	.
.	(16f#/Jk	.
4r	4g#/	.
4d 4G# 4E\	4e/)	.
=167	=167	=167
.	(16qqa/LL	.
.	16qqb/JJ	.
4AA/	8a/L	.
.	8g#/)	.
4c# 4A 4E\	8a'/	.
.	8b'/	.
4c# 4A 4E\	8cc#'/	.
.	8dd'/J	.
=168	=168	=168
.	((<16qqcc#/LL	.
.	16qqdd/JJ	.
4E 4EE/	8.cc#\L)	.
.	16b\Jk	.
4r	2ee^\)	.
4d 4G# 4E\	.	.
=169	=169	=169
.	((<16qqb/LL	.
.	16qqcc#/JJ	.
4AA/	8.b\L)	.
.	16a\Jk	.
4r	2ee^\)	.
4c# 4A 4E\	.	.
!!LO:LB:g=original
=170	=170	=170
*xywh-6:598,2322,3527,556	*xywh-6:598,2322,3527,556	*
4E 4EE/	8.f#/L	.
.	(16f#/Jk	.
4r	4g#/	.
4d 4G# 4E\	4e/)	.
=171	=171	=171
4AA/	(2a/	.
4c# 4A 4E\	.	.
4c# 4A 4E\	4dd\)	.
=172	=172	=172
.	((<16qqcc#/LL	.
.	16qqdd/JJ	.
4E 4EE/	8.cc#\L)	.
.	16b\Jk	.
4r	2ee^\)	.
4d 4G# 4E\	.	.
=173	=173	=173
.	((<16qqb/LL	.
.	16qqcc#/JJ	.
4AA/	8.b\L)	.
.	16a\Jk	.
4r	2ee^\)	.
4c# 4A 4E\	.	.
=174	=174	=174
4E 4EE/	8.f#/L	.
.	(16f#/Jk	.
4r	4g#/	.
4d 4G# 4E\	4e/)	.
=175	=175	=175
.	(16qqa/LL	.
.	16qqb/JJ	.
4AA/	8a/L	.
.	8g#/)	.
4c# 4A 4E\	8a'/	.
.	8b'/	.
4c# 4A 4E\	8cc#'/	.
.	8dd'/J	.
=176	=176	=176
.	((<16qqcc#/LL	.
.	16qqdd/JJ	.
4E 4EE/	8.cc#\L)	.
.	16b\Jk	.
4r	2ee^\)	.
4d 4G# 4E\	.	.
=177	=177	=177
.	((<16qqb/LL	.
.	16qqcc#/JJ	.
4AA/	8.b\L)	.
.	16a\Jk	.
4r	2ee^\)	.
4c# 4A 4E\	.	.
!!LO:PB:g=original
=178	=178	=178
*xywh-7:540,412,3539,645	*xywh-7:540,412,3539,645	*
4E 4EE/	8.f#/L	.
.	(16f#/Jk	.
4r	4g#/	.
4d 4G# 4E\	4e/)	.
=179	=179	=179
4AA/	(2a/	.
4c# 4A 4E\	.	.
4c# 4A 4E\	4g#/)	.
=180||	=180||	=180||
!!!OMD: PIÙ VIVO.
4c# 4G# 4E 4C#\	8.cc#\L	ff
!	!LO:TX:b:t=pastorale.	!
.	(16cc#\Jk	.
4B#X 4G# 4F# 4C#\	4dd#X\	.
4B# 4G# 4F# 4C#\	8b#X/L	.
.	8g#/J)	.
=181	=181	=181
.	(16qqcc#/LL	.
.	16qqdd#X/JJ	.
4c# 4G# 4E 4C#\	8cc#\L	.
.	8b#X\	.
4c# 4G# 4E 4C#\	8cc#\	.
.	8dd#X\	.
4c# 4G# 4E 4C#\	8ee\	.
.	8dd#\J)	.
=182	=182	=182
4c# 4G# 4E 4C#\	8.cc#\L	.
.	(16cc#\Jk	.
4B#X 4G# 4F# 4C#\	4dd#X\	.
4B# 4G# 4F# 4C#\	8b#X/L	.
.	8g#/J)	.
=183	=183	=183
.	(16qqcc#/LL	.
.	16qqdd#X/JJ	.
4c# 4G# 4E 4C#\	8cc#\L	.
.	8b#X\J	.
4c# 4G# 4E 4C#\	8cc#\L	.
.	8dd#X\J	.
4c# 4G# 4E 4C#\	4ee\)	.
=184	=184	=184
*^	*	*
4r	2.C#\	8dd#X\	.
.	.	8r	.
.	.	8qg#/	.
4B#X 4G# 4F#/	.	(4.gg#^\	.
4B# 4G# 4F#/	.	.	.
.	.	8ff#\)	.
=185	=185	=185	=185
4r	2.C#\	(4.ee\	.
4c# 4G# 4E/	.	.	.
.	.	8cc#\L	.
4c# 4G# 4E/	.	8dd#X\	.
.	.	8ee\J)	.
!!LO:LB:g=original
=186	=186	=186	=186
*xywh-7:559,1042,3601,431	*xywh-7:559,1042,3601,431	*xywh-7:559,1042,3601,431	*
4r	2.C#\	(4dd#X\	.
4B#X 4G# 4F#/	.	8b#X\L	.
.	.	8g#\	.
4B# 4G# 4F#/	.	8a#X\	.
.	.	8b#\J)	.
=187	=187	=187	=187
.	.	8qdd#X/	.
4r	2.C#\	(8cc#\L	.
.	.	8b#X\	.
4c# 4G# 4E/	.	8cc#\	.
.	.	8dd#X\J	.
4c# 4G# 4E/	.	4ee^\)	.
=188	=188	=188	=188
4r	2.C#\	8dd#X\	.
.	.	8r	.
.	.	8qg#/	.
4B#X 4G# 4F#/	.	(4.gg#^\	.
4B# 4G# 4F#/	.	.	.
.	.	8ff#\)	.
=189	=189	=189	=189
4r	2.C#\	(4.ee\	.
4c# 4G# 4E/	.	.	.
.	.	8cc#\L	.
4c# 4G# 4E/	.	8dd#X\	.
.	.	8ee\J)	.
=190	=190	=190	=190
4r	2.C#\	(4dd#X\	.
4B#X 4G# 4F#/	.	8b#X\L	.
.	.	8g#\	.
4B# 4G# 4F#/	.	8a#X\	.
.	.	8b#\J)	.
*v	*v	*	*
=191	=191	=191
2c# 2G# 2E 2C#\	(8.cc#\L	.
.	16ee\Jk	.
.	4dd#X\	.
4B#X 4G# 4F# 4C#^\	4g#^>/)	.
=192	=192	=192
2c# 2G# 2E 2C#\	(8cc#\L	.
.	8ee\	.
.	8dd#X\	.
.	8ff#\	.
4B#X 4G# 4F# 4C#^\	8ee\	.
.	8dd#\J)	.
!!LO:LB:g=original
=193	=193	=193
*xywh-7:567,1478,3539,458	*xywh-7:567,1478,3539,458	*
2c# 2G# 2E 2C#\	(8.cc#\L	.
.	16ee\Jk	.
.	4dd#X\	.
4B#X 4G# 4F# 4C#^\	4g#^>/)	.
=194	=194	=194
2c# 2G# 2E 2C#\	(8.cc#\L	.
.	16ee\Jk	.
.	8dd#X\L	.
.	8ff#\	.
4B#X 4G# 4F# 4C#\	8ee\	.
.	8dd#\J)	.
=195	=195	=195
2c# 2G# 2E 2C#\	(8.cc#\L	.
.	16ee\Jk	.
.	4dd#X\	.
4B#X 4G# 4F# 4C#\	4g#/)	.
=196	=196	=196
2c# 2G# 2E 2C#\	(8cc#\L	.
.	8ee\	.
.	8dd#X\	.
.	8ff#\	.
4B#X 4G# 4F# 4C#\	8ee\	.
.	8dd#\J)	.
=197	=197	=197
2c# 2G# 2E 2C#\	(8cc#\L	.
.	8ee\	.
.	8dd#X\	.
.	8ff#\	.
4B#X 4G# 4F# 4C#\	8ee\	.
.	8dd#\J)	.
=198	=198	=198
2c# 2G# 2E 2C#\	(8cc#\L	.
.	8ee\	.
.	8dd#X\	.
.	8ff#\	.
4B#X 4G# 4F# 4C#\	8ee\	.
.	8dd#\J)	.
=199	=199	=199
.	(16qqcc#/LL	.
.	16qqdd#X/JJ	.
4c# 4G# 4E 4C#\	8.cc#\L	.
.	16b#X\Jk	.
4r	4cc#\	.
4r	4dd#X^\)	.
!!LO:LB:g=original
=200	=200	=200
*xywh-7:563,1886,3430,478	*xywh-7:563,1886,3430,478	*
.	(16qqcc#/LL	.
.	16qqdd#X/JJ	.
2.r	8.cc#\L	.
.	16b#X\Jk	.
.	4cc#\	.
.	4dd#X^\)	.
=201	=201	=201
.	(16qqcc#/LL	.
.	16qqdd#X/JJ	.
2.r	8.cc#\L	.
.	16b#X\Jk	.
.	4cc#\	.
.	4dd#X^\)	.
=202	=202	=202
.	(16qqcc#/LL	>
.	16qqdd#X/JJ	.
2.r	8.cc#\L	.
.	16b#X\Jk	.
.	4cc#\	.
.	4dd#X^\)	]
=203||	=203||	=203||
!!!OMD: Tempo 1.°
*	*ped	*
.	(16qqcc#/LL	pp
.	16qqdd/JJ	.
2E 2EE/	8.cc#\L	.
.	16b\Jk	.
.	2ee^\)	.
*	*Xped	*
4d 4G# 4E\	.	.
=204	=204	=204
*	*ped	*
.	(16qqcc#/LL	.
.	16qqdd/JJ	.
2AA/	8.cc#\L	.
.	16b\Jk	.
.	2ee^\)	.
*	*Xped	*
4c# 4A 4E\	.	.
=205	=205	=205
*	*ped	*
2E 2EE/	8.f#/L	.
.	(16f#/Jk	.
.	4g#/	.
*	*Xped	*
4d 4G# 4E\	4e/)	.
=206	=206	=206
*	*ped	*
.	(16qqa/LL	.
.	16qqb/JJ	.
4AA/	8a/L	.
.	8g#/)	.
4c# 4A 4E\	8a'/	.
.	8b'/	.
4c# 4A 4E\	8cc#'/	.
*	*Xped	*
.	8dd'/J	.
=207	=207	=207
.	(16qqcc#/LL	.
.	16qqdd/JJ	.
2E 2EE/	8.cc#\L	.
.	16b\Jk	.
.	2ee^\)	.
4d 4G# 4E\	.	.
!!LO:LB:g=original
=208	=208	=208
*xywh-7:575,2333,3555,657	*xywh-7:575,2333,3555,657	*
.	(16qqb/LL	.
.	16qqcc#/JJ	.
2AA/	8.b\L	.
.	16a\Jk	.
.	2ee^\)	.
4c# 4A 4E\	.	.
=209	=209	=209
.	(16qqb/LL	.
.	16qqcc#/JJ	.
2AA/	8.b\L	.
.	16a\Jk	.
.	2ffn^\)	.
4d 4A 4Fn\	.	.
=210	=210	=210
.	(16qqb/LL	.
.	16qqcc#/JJ	.
2AA/	8.b\L	.
.	16a\Jk	.
.	2ff#X^\)	.
4d#X 4cn 4F#X\	.	.
=211	=211	=211
4GGn 4GGGn/	8.ggnL 8.ee 8.gn\	ff
.	16ggJk 16ee 16g\	.
4cn 4Gn 4E\	4aa 4ffn 4a\	.
4c 4G 4E\	4gg 4ee 4g\	.
=212	=212	=212
4GGn 4GGGn/	4.cccn 4.ee 4.ccn^\	.
2cn 2Gn 2E\	.	.
.	8bbL 8ggn 8b\	.
.	8aa 8ffn 8a\	.
.	8ggJ 8ee 8gn\	.
=213	=213	=213
4GGn 4GGGn/	8aaL 8a\	.
.	8ggnJ 8gn\	.
2B 2Gn 2Fn\	8ff#XL 8f#X\	.
!	!LO:TX:b:t=con impeto.	!
.	8gg 8g\	.
.	8gg#X 8g#X\	.
.	8aaJ 8a\	.
=214	=214	=214
2.r	8aa#XL 8a#X\	.
.	8bb 8b\	.
.	8cccn 8ccn\	.
.	8ccc#XJ 8cc#X\	.
.	8dddL 8dd\	.
.	8ddd#XJ 8dd#X\	.
!!LO:PB:g=original
=215|!	=215|!	=215|!
!!!key: C
*k[]	*k[]	*
*	*8va	*
*xywh-8:442,361,3543,688	*xywh-8:442,361,3543,688	*
4C 4CC/	8.eeeL 8.ccc 8.ee/	ff
.	16eeeJk 16ccc 16ee/	.
4c 4G 4E\	4fff 4ddd 4ff\	.
4c 4G 4E\	4fff#X 4ddd#X 4ff#X\	.
=216	=216	=216
4C 4CC/	4aaa 4fffn 4aa\	.
2c 2G 2E\	4..ggg 4..eee 4..gg\	.
.	16eeee 16ggg 16eee\	pp
=217	=217	=217
4GG/	8.eeeeL 8.ggg 8.eee\	.
.	16ddddJk 16fff 16ddd\	.
2f 2d 2B 2G\	4.dddd 4.fff 4.ddd\	.
.	8eeee 8ggg 8eee\	.
=218	=218	=218
4C 4CC/	8.ddddL 8.fff 8.ddd\	.
.	16ccccJk 16eee 16ccc\	.
2e 2c 2G\	2cccc 2eee 2ccc\	.
=219	=219	=219
4C 4CC/	8.eeeL 8.ccc 8.ee/	ff
.	16eeeJk 16ccc 16ee/	.
4c 4G 4E\	4fff 4ddd 4ff\	.
4c 4G 4E\	4fff#X 4ddd#X 4ff#X\	.
=220	=220	=220
4C 4CC/	4aaa 4fffn 4aa\	.
2c 2G 2E^\	4..ggg 4..eee 4..gg\	.
*	*X8va	*
!	!LO:TX:a:t=loco.	!
.	16eee 16ee\	p
=221	=221	=221
4F 4FF\	8.eeeL 8.ee\	.
.	16dddJk 16dd\	.
4d 4A\	4.ddd 4.dd\	.
4F#X 4FF#X\	.	.
.	8ccc 8cc\	.
=222	=222	=222
4G 4GG\	8bbL 8b\	<
.	8dddJ 8dd\	.
2d 2B 2G\	16aaa 16aa\	[
.	16r	.
.	8gggL 8gg^\	.
.	8fff#X 8ff#X^\	.
.	8fffnJ 8ffn^\	.
!!LO:LB:g=original
=223	=223	=223
*xywh-8:520,945,3442,552	*xywh-8:520,945,3442,552	*
*	*8va	*
4C 4CC/	8.eeeL 8.ccc 8.ee/	ff
.	16eeeJk 16ccc 16ee/	.
4c 4G 4E\	4fff 4ddd 4ff\	.
4c 4G 4E\	4fff#X 4ddd#X 4ff#X\	.
=224	=224	=224
4C 4CC/	4aaa 4fffn 4aa\	.
2c 2G 2E\	4..ggg 4..eee 4..gg\	.
.	16eeee 16ggg 16eee\	pp
=225	=225	=225
4GG/	8.eeeeL 8.ggg 8.eee\	.
.	16ddddJk 16fff 16ddd\	.
2f 2d 2B 2G\	4.dddd 4.fff 4.ddd\	.
.	8eeee 8ggg 8eee\	.
=226	=226	=226
4C 4CC/	8.ddddL 8.fff 8.ddd\	.
.	16ccccJk 16eee 16ccc\	.
2e 2c 2G\	2cccc 2eee 2ccc\	.
=227	=227	=227
4C 4CC/	8.eeeL 8.ccc 8.ee/	ff
.	16eeeJk 16ccc 16ee/	.
4c 4G 4E\	4fff 4ddd 4ff\	.
4c 4G 4E\	4fff#X 4ddd#X 4ff#X\	.
=228	=228	=228
4C 4CC/	4aaa 4fffn 4aa\	.
2c 2G 2E^\	4..ggg 4..eee 4..gg\	.
*	*X8va	*
!	!LO:TX:a:t=loco.	!
.	16eee 16ee\	p
=229	=229	=229
4D 4DD/	8.eeeL 8.ee\	.
.	16dddJk 16dd\	.
4A 4F#X 4D\	4ddd 4dd\	.
4A 4F# 4D\	4ccc 4cc\	.
=230	=230	=230
4GG/	4.bb 4.b^\	.
2B 2G 2D\	.	.
.	8ggL 8g\	.
.	8ff#X 8f#X\	.
.	8eeJ 8e\	.
=231||	=231||	=231||
!!!OMD: Animato.
4D 4DD/	([4dd^\	f
4c 4A 4F#X 4D\	8.dd\L]	.
.	16cc\Jk)	.
4c 4A 4F# 4D\	8.a/L	.
.	16b/Jk	.
!!LO:LB:g=original
=232	=232	=232
*xywh-8:547,1431,3461,505	*xywh-8:547,1431,3461,505	*
4GG/	(8.g/L	.
.	16b/Jk)	.
2B 2G 2D^\	4ee\	>
.	4dd\	]
=233	=233	=233
4D 4DD/	(8.dd\L	.
.	16ff#X\Jk)	.
2c 2A 2F#X 2D^\	4bb 4b\	>
.	4aa 4a\	]
=234	=234	=234
4GG/	(8.gg\L	.
.	16bb\Jk)	.
2B 2G 2D^\	4eee 4ee\	>
.	4ddd 4dd\	]
=235	=235	=235
4D 4DD/	([4dd^\	.
4c 4A 4F#X 4D\	8.dd\L]	.
.	16cc\Jk)	.
4c 4A 4F# 4D\	8.a/L	.
.	16b/Jk	.
=236	=236	=236
4GG/	(8.g/L	.
.	16b/Jk)	.
2B 2G 2D^\	4ee\	.
.	4dd\	.
=237	=237	=237
4D 4DD/	4ddd 4dd\	.
4c 4A 4F#X 4D\	8cccL 8cc\	.
.	8aa 8a\	.
4c 4A 4F# 4D\	8ee 8e\	.
.	8ff#XJ 8f#X\	.
=238	=238	=238
4GG/	4.gg 4.g\	.
2B 2G 2D^\	.	.
.	8ggL 8g\	.
.	8ff#X 8f#X\	.
.	8eeJ 8e\	.
=239	=239	=239
4D 4DD/	([4dd^\	f
4c 4A 4F#X 4D\	8.dd\L]	.
.	16cc\Jk)	.
4c 4A 4F# 4D\	8.a/L	.
.	16b/Jk	.
!!LO:LB:g=original
=240	=240	=240
*xywh-8:501,1847,3559,513	*xywh-8:501,1847,3559,513	*
4GG/	(8.g/L	.
.	16b/Jk)	.
2B 2G 2D^\	4ee\	>
.	4dd\	]
=241	=241	=241
4D 4DD/	(8.dd\L	.
.	16ff#X\Jk)	.
2c 2A 2F#X 2D^\	4bb 4b\	>
.	4aa 4a\	]
=242	=242	=242
4GG/	(8.gg\L	.
.	16bb\Jk)	.
2B 2G 2D^\	4eee 4ee\	>
.	4ddd 4dd\	]
=243	=243	=243
4D 4DD/	([4dd\	.
4c 4A 4F#X 4D\	8.dd\L]	.
.	16cc\Jk)	.
4c 4A 4F# 4D\	8.a/L	.
.	16b/Jk	.
=244	=244	=244
4GG/	(8.g/L	.
.	16b/Jk)	.
2B 2G 2D\	4ee\	.
.	4dd\	.
=245	=245	=245
4D 4DD/	4ddd 4dd\	.
4c 4A 4F#X 4D\	8cccL 8cc\	.
.	8aa 8a\	.
4c 4A 4F# 4D\	8ee 8e\	.
.	8ff#XJ 8f#X\	.
=246	=246	=246
8GL 8GG/	8ggL 8g\	.
!LO:TX:a:t=con impeto.	!	!
16GJk 16GG/	16ggJk 16g\	.
16r	16r	.
8F#XL 8FF#X^/	8aaL 8a^\	.
8Fn 8FFn^/	8bb 8b^\	.
8E 8EE^/	8ccc 8cc^\	.
8DJ 8DD^/	8dddJ 8dd^\	.
=247	=247	=247
4C 4CC/	8.eeeL 8.ccc 8.ee\	ff
.	16eeeJk 16ccc 16ee\	.
4c 4G 4E\	4fff 4ddd 4ff\	.
4c 4G 4E\	4fff#X 4ddd#X 4ff#X\	.
!!LO:LB:g=original
=248	=248	=248
*xywh-8:501,2271,3597,676	*xywh-8:501,2271,3597,676	*
4C 4CC/	4aaa 4fffn 4aa\	.
2c 2G 2E\	4.ggg 4.eee 4.gg\	.
.	8eee 8gg 8ee\	pp
=249	=249	=249
4GG/	8.eeeL 8.gg 8.ee\	.
.	16dddJk 16ff 16dd\	.
2f 2d 2B 2G\	4.ddd 4.ff 4.dd\	.
.	8eee 8gg 8ee\	.
=250	=250	=250
4C 4CC/	8.dddL 8.ff 8.dd\	.
.	16cccJk 16ee 16cc\	.
2e 2c 2G\	2ccc 2ee 2cc\	.
=251	=251	=251
4C 4CC/	8.eeL 8.cc 8.e/	ff
.	16eeJk 16cc 16e/	.
4c 4G 4E\	4ff 4dd 4f\	.
4c 4G 4E\	4ff#X 4dd#X 4f#X\	.
=252	=252	=252
4C 4CC/	4aa 4ffn 4a\	.
2c 2G 2E\	4.gg 4.ee 4.g\	.
.	8ee\	.
=253	=253	=253
*	*^	*
4F 4FF\	(8.ee\L	4ryy	.
.	16dd\Jk)	.	.
!	!	!	!LO:HP:a
4d 4A\	4.dd/	2a\	>
4F#X 4FF#X\	.	.	.
.	8cc/	.	]
*	*v	*v	*
=254	=254	=254
4G 4GG\	(8b\L	<
.	8dd\J	.
2d 2B 2G\	16aa'\)	[
.	16r	.
.	8ggL 8ee^<\	.
.	8ff#X 8dd#X^<\	.
.	8ffnJ 8ddn^<\	.
=255	=255	=255
4C 4CC/	8.eeL 8.cc 8.e/	.
.	16eeJk 16cc 16e/	.
4c 4G 4E\	4ff 4dd 4f\	.
4c 4G 4E\	4ff#X 4dd#X 4f#X\	.
!!LO:PB:g=original
=256	=256	=256
*xywh-9:590,435,3496,684	*xywh-9:590,435,3496,684	*
4C 4CC/	4aa 4ffn 4a\	.
2c 2G 2E^\	4..gg 4..ee 4..g\	.
.	16eee 16gg 16ee\	pp
=257	=257	=257
4GG/	8.eeeL 8.gg 8.ee\	.
.	16dddJk 16ff 16dd\	.
2f 2d 2B 2G\	4.ddd 4.ff 4.dd\	.
.	8eee 8gg 8ee\	.
=258	=258	=258
4C 4CC/	8.dddL 8.ff 8.dd\	.
.	16cccJk 16ee 16cc\	.
2e 2c 2G\	2ccc 2ee 2cc\	.
=259	=259	=259
4C 4CC/	8.eeL 8.cc 8.e/	ff
.	16eeJk 16cc 16e/	.
4c 4G 4E\	4ff 4dd 4f\	.
4c 4G 4E\	4ff#X 4dd#X 4f#X\	.
=260	=260	=260
4C 4CC/	4aa 4ffn 4a\	.
2c 2G 2E^\	4.gg 4.ee 4.g^\	.
.	8ee\	.
=261	=261	=261
4D 4DD/	(8.ee\L	.
.	16dd\Jk)	.
4c 4A 4F#X 4D\	4dd\	.
4c 4A 4F# 4D\	4ee\	.
=262	=262	=262
4GG/	(4.dd\	.
2B 2G 2Fn 2D\	.	.
.	8cc\L	.
.	8a\	.
.	8b\J)	.
=263||	=263||	=263||
!!!OMD: PIÙ VIVO.
!	!LO:TX:b:t=con tutta la forza.	!
4c 4G 4E 4C\	8.cc\L	.
.	(16cc\Jk	.
4B 4G 4F 4C\	4dd^\	.
4B 4G 4F 4C\	8b/L	.
.	8g/J)	.
=264	=264	=264
.	16qqcc/LL	.
.	16qqdd/JJ	.
4c 4G 4E 4C\	(8cc\L	.
.	8b\J	.
4c 4G 4E 4C\	8cc\L	.
.	8dd\	.
4c 4G 4E 4C\	8ee\	.
.	8dd\J)	.
!!LO:LB:g=original
=265	=265	=265
*xywh-9:555,1077,3492,466	*xywh-9:555,1077,3492,466	*
4c 4G 4E 4C\	8.cc\L	.
.	(16cc\Jk	.
4B 4G 4F 4C\	4dd^\	.
4B 4G 4F 4C\	8b/L	.
.	8g/J)	.
=266	=266	=266
.	16qqcc/LL	.
.	16qqdd/JJ	.
4c 4G 4E 4C\	8.cc\L	.
.	16b\K	.
4c 4G 4E 4C\	8cc\	.
.	8dd\J	.
4c 4G 4E 4C\	4ee^\	.
=267	=267	=267
*^	*	*
4r	2.C^\	8dd\	.
.	.	8r	.
.	.	(8qg/	.
4B 4G 4F/	.	4.gg^\	.
4B 4G 4F/	.	.	.
.	.	8ff\)	.
=268	=268	=268	=268
4r	2.C^\	(4.ee^\	.
4c 4G 4E/	.	.	.
.	.	8cc\L	.
4c 4G 4E/	.	8dd\	.
.	.	8ee\J)	.
=269	=269	=269	=269
4r	2.C\	(4dd^\	.
4B 4G 4F/	.	8cc\L	.
.	.	8a\	.
4B 4G 4F/	.	8b\	.
.	.	8g\J)	.
=270	=270	=270	=270
4r	2.C\	(2cc\	.
4c 4G 4E/	.	.	.
4c 4G 4E/	.	4g/)	.
*v	*v	*	*
=271	=271	=271
4c 4G 4E 4C\	8.cc\L	.
.	(16cc\Jk	.
4B 4G 4F 4C\	4dd^\	.
4B 4G 4F 4C\	8b/L	.
.	8g/J)	.
=272	=272	=272
.	(16qqcc/LL	.
.	16qqdd/JJ	.
4c 4G 4E 4C\	8cc\L	.
.	8b\	.
4c 4G 4E 4C\	8cc\	.
.	8dd\	.
4c 4G 4E 4C\	8ee\	.
.	8dd\J)	.
!!LO:LB:g=original
=273	=273	=273
*xywh-9:540,1485,3450,497	*xywh-9:540,1485,3450,497	*
4c 4G 4E 4C\	8.cc\L	.
.	(16cc\Jk	.
4B 4G 4F 4C\	4dd^\	.
4B 4G 4F 4C\	8b/L	.
.	8g/J)	.
=274	=274	=274
.	16qqcc/LL	.
.	16qqdd/JJ	.
4c 4G 4E 4C\	8.cc\L	.
.	16b\K	.
4c 4G 4E 4C\	8cc\	.
.	8dd\J	.
4c 4G 4E 4C\	4ee^\	.
=275	=275	=275
*^	*	*
4r	2.C^\	8dd\	.
.	.	8r	.
.	.	8qg/	.
4B 4G 4F/	.	(4.gg^\	.
4B 4G 4F/	.	.	.
.	.	8ff\)	.
=276	=276	=276	=276
4r	2.C^\	(4.ee^\	.
4c 4G 4E/	.	.	.
.	.	8cc\L	.
4c 4G 4E/	.	8dd\	.
.	.	8ee\J)	.
=277	=277	=277	=277
4r	2.C^\	(4dd^\	.
4B 4G 4F/	.	8cc\L	.
.	.	8a\	.
4B 4G 4F/	.	8b\	.
.	.	8g\J)	.
=278	=278	=278	=278
.	.	(16qqcc/LL	.
.	.	16qqdd/JJ	.
4r	2.C^\	8cc\L	.
.	.	8b\	.
4c 4G 4E/	.	8cc\	.
.	.	8dd\J	.
4c 4G 4E/	.	4ee^\)	.
=279	=279	=279	=279
4r	2.C^\	8dd\	.
.	.	8r	.
.	.	8qg/	.
4B 4G 4F/	.	(4.gg^\	.
4B 4G 4F/	.	.	.
.	.	8ff\)	.
=280	=280	=280	=280
4r	2.C^\	(4.ee^\	.
4c 4G 4E/	.	.	.
.	.	8cc\L	.
4c 4G 4E/	.	8dd\	.
.	.	8ee\J)	.
=281	=281	=281	=281
4r	2.C^\	(4dd^\	.
4B 4G 4F/	.	8cc\L	.
.	.	8a\	.
4B 4G 4F/	.	8b\	.
.	.	8g\J)	.
*v	*v	*	*
!!LO:LB:g=original
=282	=282	=282
*xywh-9:555,1975,3590,420	*xywh-9:555,1975,3590,420	*
2c 2G 2E 2C\	(8.cc\L	.
.	16ee\Jk	.
.	4dd\	.
4B 4G 4F 4C\	4g^/)	.
=283	=283	=283
2c 2G 2E 2C\	(8cc\L	.
.	8ee\	.
.	8dd\	.
.	8ff\	.
4B 4G 4F 4C\	8ee\	.
.	8dd\J)	.
=284	=284	=284
2c 2G 2E 2C\	(8.cc\L	.
.	16ee\Jk	.
.	4dd\	.
4B 4G 4F 4C\	4g^/)	.
=285	=285	=285
2c 2G 2E 2C\	(8cc\L	.
.	8ee\	.
.	8dd\	.
.	8ff\	.
4B 4G 4F 4C\	8ee\	.
.	8dd\J)	.
=286	=286	=286
2c 2G 2E 2C\	(8.cc\L	.
.	16ee\Jk	.
.	4dd\	.
4B 4G 4F 4C\	4g^/)	.
=287	=287	=287
2c 2G 2E 2C\	(8cc\L	>
.	8ee\	.
.	8dd\	.
.	8ff\	.
4B 4G 4F 4C\	8ee\	.
.	8dd\J)	.
=288	=288	=288
2c 2G 2E 2C\	(8cc\L	.
.	8ee\	.
.	8dd\	.
.	8ff\	.
4B 4G 4F 4C\	8ee\	.
.	8dd\J)	.
=289	=289	=289
2c 2G 2E 2C\	(8cc\L	.
.	8ee\	.
.	8dd\	.
.	8ff\	.
4B 4G 4F 4C\	8ee\	.
.	8dd\J)	.
!!LO:LB:g=original
=290	=290	=290
*	*^	*
*xywh-9:594,2357,3539,789	*xywh-9:594,2357,3539,789	*xywh-9:594,2357,3539,789	*
2c 2G 2E 2C\	2.gg^/	(>8cc\L	.
.	.	8ee\	.
.	.	8dd\	.
.	.	8ff\	.
4B 4G 4F 4C\	.	8ee\	.
.	.	8dd\J)	.
=291	=291	=291	=291
2c 2G 2E 2C\	2.gg^/	(>8cc\L	.
.	.	8ee\	.
.	.	8dd\	.
.	.	8ff\	.
4B 4G 4F 4C\	.	8ee\	.
.	.	8dd\J)	.
=292	=292	=292	=292
2c 2G 2E 2C\	2.gg^/	(>8cc\L	.
.	.	8ee\	.
.	.	8dd\	.
.	.	8ff\	.
4B 4G 4F 4C\	.	8ee\	.
.	.	8dd\J)	.
=293	=293	=293	=293
2c 2G 2E 2C\	2.gg^/	(>8cc\L	.
.	.	8ee\	.
.	.	8dd\	.
.	.	8ff\	.
4B 4G 4F 4C\	.	8ee\	.
.	.	8dd\J)	.
=294	=294	=294	=294
2.G 2.C^\	2.gg^/	2.cc\	]
=295	=295	=295	=295
!	!LO:TX:b:t=morendo.	!	!LO:DY:rj
2.GG 2.CC^/	2.gg^/	2.cc\	pp
=296	=296	=296	=296
2.GG 2.CC^/	2.gg^/	2.cc\	.
=297	=297	=297	=297
2.GG 2.CC^/	2.gg^/	2.cc\	.
=298	=298	=298	=298
2.GG 2.CC^/	2.gg^/	2.cc\	.
*	*v	*v	*
=299	=299	=299
2.r;	2.r;	.
=300	=300	=300
*^	*	*
!LO:TX:b:t=con fuoco.	!	!	!LO:DY:rj
8.BL 8.D/	2.GG\	8.ggL 8.ff 8.dd 8.g\	ff
16BJk 16D/	.	16ggJk 16ff 16dd 16g\	.
4B 4D/	.	4aa 4ff 4dd 4a\	.
4B 4D/	.	4bb 4ff 4dd 4b\	.
*v	*v	*	*
=301	=301	=301
4e 4G 4C\	4ccc 4gg 4ee 4cc\	.
*	*8va	*
4C 4CC/	4cccc 4ggg 4eee 4ccc\	sf
*	*X8va	*
!LO:TX:b:t=FINE.	!	!
4r;	4r;	.
==	==	==
*-	*-	*-
!!!system-decoration: {(*)}
!!!RDF**kern: > = above
!!!RDF**kern: < = below
!!!ENC: Berenika Jozajtis
!!!END: 2022-02-18
!!!ENC: Andrzej Kubiczek
!!!END: 2022-02-27
!!!ENC-iiif: Natalia Wrzos
!!!END-iiif: 2022-08-30
!!!YEC: Copyright 2022 Narodowy Instytut Fryderyka Chopina (https://polishscores.org)
!!!YEM: License CC-BY-4.0 (https://creativecommons.org/licenses/by/4.0)
